!!!COM: des Prez, Josquin
!!!CDT: ~1450-1521/08/27
!!!OTL@@LAT: Alma redemptoris mater / Ave regina celorum
!!!OTL2@@LAT: Tu que genuisti / Gaude virgo
!!!AGN: Motet
!!!SCT: NJE 23.2
!!!SCA: New Josquin Edition 23.2
!!!voices: 4
**kern	**text	**kern	**text	**kern	**text	**kern	**text
*staff4	*	*staff3	*	*staff2	*	*staff1	*
*Ivox	*	*Ivox	*	*Ivox	*	*Ivox	*
*I"Bassus	*	*I"Tenor	*	*I"Altus	*	*I"Superius	*
*I'B	*	*I'T	*	*I'A	*	*I'S	*
*>[A,B]	*	*>[A,B]	*	*>[A,B]	*	*>[A,B]	*
*>Part1[A]	*	*>Part1[A]	*	*>Part1[A]	*	*>Part1[A]	*
*>Part2[B]	*	*>Part2[B]	*	*>Part2[B]	*	*>Part2[B]	*
*>A	*	*>A	*	*>A	*	*>A	*
*clefF4	*	*clefGv2	*	*clefGv2	*	*clefG2	*
*k[]	*	*k[]	*	*k[]	*	*k[]	*
*M3/1	*	*M3/1	*	*M3/1	*	*M3/1	*
*met(O)	*	*met(O)	*	*met(O)	*	*met(O)	*
=1-	=1	=1-	=1	=1-	=1	=1-	=1
0.r	.	0.r	.	1.c	A-	2.c/	Al-
.	.	.	.	.	.	4d/	.
.	.	.	.	.	.	4e/	.
.	.	.	.	.	.	4f/	.
.	.	.	.	2B\	.	1g	.
.	.	.	.	1A	.	.	.
.	.	.	.	.	.	2f#i/	.
=2	=2	=2	=2	=2	=2	=2	=2
0.r	.	0.r	.	2.B\	.	1g	-ma,
.	.	.	.	4G/	.	.	.
.	.	.	.	4A/	.	1r	.
.	.	.	.	4B\	.	.	.
.	.	.	.	1c	.	.	.
.	.	.	.	.	.	2r	.
.	.	.	.	2B\	.	2g/	al-
=3	=3	=3	=3	=3	=3	=3	=3
0.r	.	0.r	.	0c	-ve	2a/	.
.	.	.	.	.	.	1cc	.
.	.	.	.	.	.	2b\	.
.	.	.	.	1r	.	1a	.
=4	=4	=4	=4	=4	=4	=4	=4
0.r	.	0.r	.	0c	re-	2g/	.
.	.	.	.	.	.	2.a/	.
.	.	.	.	.	.	4g/	.
.	.	.	.	.	.	2e/	.
.	.	.	.	1d	-gi-	1f	.
=5	=5	=5	=5	=5	=5	=5	=5
0.r	.	0.r	.	1e	.	2e/	-ma
.	.	.	.	.	.	2g/	re-
.	.	.	.	1e	-na	2g/	-demp-
.	.	.	.	.	.	2.c/	-to-
.	.	.	.	2d\	ce-	.	.
.	.	.	.	.	.	4B/	.
.	.	.	.	2e\	.	2c/	.
=6	=6	=6	=6	=6	=6	=6	=6
0.r	.	0.r	.	1f	-lo-	1d	.
.	.	.	.	2e\	.	2e/	-ris
.	.	.	.	2.d\	.	2.f/	ma-
.	.	.	.	4c\	.	4e/	.
.	.	.	.	4B\	.	[2g/	.
.	.	.	.	8A/L	.	.	.
.	.	.	.	8G/J	.	.	.
=7	=7	=7	=7	=7	=7	=7	=7
0.r	.	0.r	.	2A/	.	4g/]	.
.	.	.	.	.	.	4f/	.
.	.	.	.	2G/	.	4e/	.
.	.	.	.	.	.	4d/	.
.	.	.	.	4A/	.	2c/	.
.	.	.	.	4G/	.	.	.
.	.	.	.	1c	.	2e/	.
.	.	.	.	.	.	1d	.
.	.	.	.	2B\	.	.	.
=8	=8	=8	=8	=8	=8	=8	=8
0.r	.	0.r	.	0.c	-rum,	0.c	-ter,
=9	=9	=9	=9	=9	=9	=9	=9
2.C/	Al-	1.c	A-	0.r	.	0.r	.
4D\	.	.	.	.	.	.	.
4E\	.	.	.	.	.	.	.
4F\	.	.	.	.	.	.	.
1G	.	2B\	.	.	.	.	.
.	.	1A	.	.	.	.	.
2F#i\	.	.	.	.	.	.	.
=10	=10	=10	=10	=10	=10	=10	=10
1G	-ma,	2.B\	.	0.r	.	0.r	.
.	.	4G/	.	.	.	.	.
1r	.	4A/	.	.	.	.	.
.	.	4B\	.	.	.	.	.
.	.	1c	.	.	.	.	.
2r	.	.	.	.	.	.	.
2G\	al-	2B\	.	.	.	.	.
=11	=11	=11	=11	=11	=11	=11	=11
2A\	.	1c	-ve	0.r	.	0.r	.
1c	.	.	.	.	.	.	.
.	.	1r	.	.	.	.	.
2B\	.	.	.	.	.	.	.
1A	.	1c	re-	.	.	.	.
=12	=12	=12	=12	=12	=12	=12	=12
2G\	.	1d	-gi-	0.r	.	0.r	.
4F\	.	.	.	.	.	.	.
2G\	.	.	.	.	.	.	.
.	.	1.e	.	.	.	.	.
4A\	.	.	.	.	.	.	.
4G\	.	.	.	.	.	.	.
2A\	.	.	.	.	.	.	.
4E\	.	.	.	.	.	.	.
2F\	.	2d\	.	.	.	.	.
=13	=13	=13	=13	=13	=13	=13	=13
2E\	-ma	1e	-na	0.r	.	0.r	.
2G\	re-	.	.	.	.	.	.
2G\	-demp-	2d\	ce-	.	.	.	.
2C/	.	2e\	.	.	.	.	.
1D	-to-	1f	-lo-	.	.	.	.
=14	=14	=14	=14	=14	=14	=14	=14
2E\	.	2e\	.	0.r	.	0.r	.
2F\	-ris	2.d\	.	.	.	.	.
2.G\	ma-	.	.	.	.	.	.
.	.	4c\	.	.	.	.	.
.	.	4B\	.	.	.	.	.
4F\	.	4A/	.	.	.	.	.
4E\	.	2G/	.	.	.	.	.
4D\	.	.	.	.	.	.	.
[2C/	.	4A/	.	.	.	.	.
.	.	4G/	.	.	.	.	.
=15	=15	=15	=15	=15	=15	=15	=15
2C/]	.	4A/	.	0.r	.	0.r	.
.	.	4G/	.	.	.	.	.
2BB/	.	2.d\	.	.	.	.	.
1C	.	.	.	.	.	.	.
.	.	4c\	.	.	.	.	.
.	.	1c	.	.	.	.	.
1D	.	.	.	.	.	.	.
.	.	2B\	.	.	.	.	.
=16	=16	=16	=16	=16	=16	=16	=16
0C	-ter,	0.c	-rum,	0.r	.	1r	.
.	.	.	.	.	.	2r	.
.	.	.	.	.	.	2g/	que
1r	.	.	.	.	.	2a/	.
.	.	.	.	.	.	2b\	.
=17	=17	=17	=17	=17	=17	=17	=17
0.r	.	0.r	.	1.c	A-	2.cc\	per-
.	.	.	.	.	.	4b\	.
.	.	.	.	.	.	4a/	-vi-
.	.	.	.	.	.	4g/	.
.	.	.	.	2B\	.	1g	.
.	.	.	.	1A	.	.	.
.	.	.	.	.	.	2f#i/	.
=18	=18	=18	=18	=18	=18	=18	=18
0.r	.	0.r	.	2B\	.	1g	-a
.	.	.	.	2G/	.	.	.
.	.	.	.	4A/	.	1c	ce-
.	.	.	.	4G/	.	.	.
.	.	.	.	1c	.	.	.
.	.	.	.	.	.	1d	-li
.	.	.	.	2B\	.	.	.
=19	=19	=19	=19	=19	=19	=19	=19
0.r	.	0.r	.	1c	-ve	2.e/	por-
.	.	.	.	.	.	4f/	.
.	.	.	.	1c	do-	2g/	.
.	.	.	.	.	.	1a	.
.	.	.	.	1d	-mi-	.	.
.	.	.	.	.	.	4g/	.
.	.	.	.	.	.	4f/	.
=20	=20	=20	=20	=20	=20	=20	=20
1r	.	0.r	.	1.e	-na	2e/	.
.	.	.	.	.	.	1g	.
1r	.	.	.	.	.	.	.
.	.	.	.	2c\	an-	2a/	.
1G	que	.	.	2d\	-ge-	1b	.
.	.	.	.	[2e\	-lo-	.	.
=21	=21	=21	=21	=21	=21	=21	=21
1A	per-	0.r	.	4e\]	.	1cc	-ta
.	.	.	.	4d\	.	.	.
.	.	.	.	2.f\	.	.	.
0B	-vi-	.	.	.	.	0dd	ma-
.	.	.	.	4e\	.	.	.
.	.	.	.	4d\	.	.	.
.	.	.	.	4c\	.	.	.
.	.	.	.	1d	.	.	.
=22	=22	=22	=22	=22	=22	=22	=22
2.c\	.	1.c	A-	1c	-rum;	1ee	.
4B\	.	.	.	.	.	.	.
4A\	.	.	.	1r	.	2cc\	.
4G\	.	.	.	.	.	.	.
1G	.	2B\	.	.	.	2.dd\	.
.	.	1A	.	1r	.	.	.
.	.	.	.	.	.	4cc\	.
2F#i\	.	.	.	.	.	2a/	.
=23	=23	=23	=23	=23	=23	=23	=23
1G	-a	2.B\	.	1r	.	1g	.
.	.	4G/	.	.	.	.	.
1r	.	4A/	.	1r	.	2f/	.
.	.	4B\	.	.	.	.	.
.	.	1c	.	.	.	2e/	.
1G	ce-	.	.	1g	A-	1d	.
.	.	2B\	.	.	.	.	.
=24	=24	=24	=24	=24	=24	=24	=24
0.A	.	0.c	-ve	2e\	.	1c	-nes,
.	.	.	.	1a	.	.	.
.	.	.	.	.	.	1r	.
.	.	.	.	1g	.	.	.
.	.	.	.	.	.	1cc	ce-
.	.	.	.	2f#i\	.	.	.
=25	=25	=25	=25	=25	=25	=25	=25
2G\	-li	1r	.	2g\	-ve	2b\	.
2.A\	por-	.	.	2.c\	do-	2a/	-li
.	.	1c	do-	.	.	2.cc\	por-
4G\	.	.	.	4d\	.	.	.
2E\	.	.	.	2e\	.	.	.
.	.	.	.	.	.	4b\	.
2F\	.	1d	-mi-	2A/	.	2a/	.
2G\	.	.	.	2B\	-mi-	[2g/	.
=26	=26	=26	=26	=26	=26	=26	=26
2E\	-ta	0e	.	1c	-na	2g/]	.
2.A\	ma-	.	.	.	.	1c	-ta
.	.	.	.	2r	.	.	.
4G\	.	.	.	.	.	.	.
2E\	.	.	.	2c\	an-	2g/	ma-
2F\	.	1d	-na	2A/	.	2a/	.
2G\	.	.	.	2B\	-ge-	[2g/	.
=27	=27	=27	=27	=27	=27	=27	=27
1C	.	1e	an-	2.c\	-lo-	2g/]	.
.	.	.	.	.	.	4f/	.
.	.	.	.	4B\	.	4e/	.
0D	.	0f	-ge-	4A/	.	1d	-nes,
.	.	.	.	4G/	.	.	.
.	.	.	.	1.d	.	.	.
.	.	.	.	.	.	1a	ma-
=28	=28	=28	=28	=28	=28	=28	=28
1E	-nes,	2.e\	-lo-	2B\	.	1g	.
.	.	.	.	2c\	.	.	.
.	.	8d\L	.	.	.	.	.
.	.	8c\J	.	.	.	.	.
1F	ma-	2d\	.	1A	-rum;	2f/	.
.	.	1c	.	.	.	2e/	.
1G	.	.	.	2r	.	1d	.
.	.	2B\	.	[2G/	A-	.	.
=29	=29	=29	=29	=29	=29	=29	=29
2E\	.	0c	-rum,	2G/]	.	1c	-nes,
2.F\	.	.	.	2.A/	.	.	.
.	.	.	.	.	.	1r	.
4E\	.	.	.	4G/	.	.	.
2C/	.	.	.	1c	.	.	.
1D	-nes,	1f	an-	.	.	1r	.
.	.	.	.	2B\	.	.	.
=30	=30	=30	=30	=30	=30	=30	=30
2C/	ma-	2e\	-ge-	2c\	-ve	0.r	.
2.D\	.	2.f\	-lo-	1A	do-	.	.
4C/	.	4e\	.	.	.	.	.
2AA/	.	2c\	.	2c\	.	.	.
1BB-i	.	1d	.	2.B-\	.	.	.
.	.	.	.	4A/	.	.	.
=31	=31	=31	=31	=31	=31	=31	=31
0.C	-nes,	0.c	-rum;	1.G	.	[0.cc	Et
.	.	.	.	2.c\	.	.	.
.	.	.	.	4d\	.	.	.
.	.	.	.	4e\	.	.	.
.	.	.	.	4f\	.	.	.
=32	=32	=32	=32	=32	=32	=32	=32
0.r	.	0.r	.	2e\	.	1cc]	.
.	.	.	.	2a\	.	.	.
.	.	.	.	3%2gV	.	0b	stel-
.	.	.	.	3f\Z	.	.	.
.	.	.	.	3e\V	.	.	.
.	.	.	.	3%2dZ	.	.	.
=33	=33	=33	=33	=33	=33	=33	=33
0.r	.	0.r	.	2.c\	.	1.cc	.
.	.	.	.	4B\	.	.	.
.	.	.	.	4A/	.	.	.
.	.	.	.	4G/	.	.	.
.	.	.	.	1g	.	2b\	.
.	.	.	.	.	.	1a	.
.	.	.	.	2f#i\	-mi-	.	.
=34	=34	=34	=34	=34	=34	=34	=34
0.r	.	0.r	.	2g\	-na	1g	-la
.	.	.	.	1a	an-	.	.
.	.	.	.	.	.	2f/	ma-
.	.	.	.	1g	.	2g/	.
.	.	.	.	.	.	1a	.
.	.	.	.	2f\	-ge-	.	.
=35	=35	=35	=35	=35	=35	=35	=35
0.r	.	0.r	.	4e\	-lo-	2g/	.
.	.	.	.	4d\	.	.	.
.	.	.	.	1f	.	2.a/	.
.	.	.	.	.	.	4g/	.
.	.	.	.	1e	.	2e/	.
.	.	.	.	.	.	1f	.
.	.	.	.	2d\	.	.	.
=36	=36	=36	=36	=36	=36	=36	=36
[0.c	Et	0.r	.	2.e\	.	0e	-ris,
.	.	.	.	4f\	.	.	.
.	.	.	.	2g\	.	.	.
.	.	.	.	2a\	.	.	.
.	.	.	.	2g\	.	1r	.
.	.	.	.	[2e\	.	.	.
=37	=37	=37	=37	=37	=37	=37	=37
1c]	.	0.r	.	4e\]	.	0.r	.
.	.	.	.	4f\	.	.	.
.	.	.	.	1g	.	.	.
0B	.	.	.	.	.	.	.
.	.	.	.	4f\	.	.	.
.	.	.	.	4e\	.	.	.
.	.	.	.	1d	.	.	.
=38	=38	=38	=38	=38	=38	=38	=38
1.c	stel-	0.c	Sal-	2c\	.	0g	suc-
.	.	.	.	2.e\	.	.	.
.	.	.	.	4f\	.	.	.
2B\	.	.	.	1g	.	.	.
1A	.	.	.	.	.	1cc	-cur-
.	.	.	.	2f#i\	.	.	.
=39	=39	=39	=39	=39	=39	=39	=39
1G	-la	1d	.	1g	-rum;	1b	-re
0F	ma-	0f	.	1r	.	0a	ca-
.	.	.	.	1c	Sal-	.	.
=40	=40	=40	=40	=40	=40	=40	=40
2G\	.	0e	.	2B\	.	2b\	-den-
2A\	.	.	.	2A/	.	2.cc\	.
1E	.	.	.	2c\	.	.	.
.	.	.	.	.	.	4b\	.
.	.	.	.	2B\	.	2g/	.
1F	.	1d	.	1A	.	1a	.
=41	=41	=41	=41	=41	=41	=41	=41
1E	-ris,	0e	-ve	1B	.	1.g	-ti,
1r	.	.	.	1c	.	.	.
.	.	.	.	.	.	4f/	ca-
.	.	.	.	.	.	4e/	.
1r	.	1r	.	1d	-ve	2f/	-den-
.	.	.	.	.	.	4e/	.
.	.	.	.	.	.	4d/	.
=42	=42	=42	=42	=42	=42	=42	=42
0.r	.	0.r	.	2e\	ra-	2c/	.
.	.	.	.	2f\	.	2d/	.
.	.	.	.	2g\	.	1e	.
.	.	.	.	1e	.	.	.
.	.	.	.	.	.	1f	.
.	.	.	.	2d\	.	.	.
=43	=43	=43	=43	=43	=43	=43	=43
0C	suc-	0g	ra-	2.e\	.	0e	-ti,
.	.	.	.	4d\	.	.	.
.	.	.	.	2c\	.	.	.
.	.	.	.	2B\	.	.	.
1D	-cur-	1f	-dix	1A	.	1r	.
=44	=44	=44	=44	=44	=44	=44	=44
0E	-re	2e\	sanc-	0G	-dix	0.r	.
.	.	4d\	.	.	.	.	.
.	.	4c\	.	.	.	.	.
.	.	2B\	.	.	.	.	.
.	.	2.c\	.	.	.	.	.
2.F\	ca-	.	.	2.A/	sanc-	.	.
.	.	4B\	.	.	.	.	.
.	.	[2d\	.	.	.	.	.
4E\	.	.	.	4G/	.	.	.
=45	=45	=45	=45	=45	=45	=45	=45
2F\	.	4d\]	.	2A/	.	0.r	.
.	.	4c\	.	.	.	.	.
1G	-den-	2.e\	.	1B	.	.	.
.	.	4d\	.	.	.	.	.
2E\	.	1c	.	1G	.	.	.
1D	.	.	.	.	.	.	.
.	.	2B\	.	2F/	.	.	.
=46	=46	=46	=46	=46	=46	=46	=46
0C	-ti,	1c	-ta,	0G	-ta,	1.g	sur-
.	.	2r	.	.	.	.	.
.	.	2c\	ex	.	.	2g/	-ge-
1r	.	2B\	.	1r	.	1g	-re
.	.	2c\	.	.	.	.	.
=47	=47	=47	=47	=47	=47	=47	=47
0.r	.	1A	qua	2.c\	ex	1f	qui
.	.	.	.	4d\	.	.	.
.	.	1G	.	4e\	.	1g	cu-
.	.	.	.	4f\	.	.	.
.	.	.	.	1g	.	.	.
.	.	1r	.	.	.	1a	.
.	.	.	.	2f#i\	.	.	.
=48	=48	=48	=48	=48	=48	=48	=48
0.r	.	2r	.	1g	.	1g	-rat
.	.	2G/	mun-	.	.	.	.
.	.	2A/	.	1r	.	2f/	po-
.	.	1c	.	.	.	2.e/	.
.	.	.	.	1G	qua	.	.
.	.	.	.	.	.	4c/	.
.	.	2B\	.	.	.	2d/	-pu-
=49	=49	=49	=49	=49	=49	=49	=49
0.r	.	1c	-do	0g	mun-	0e	-lo,
.	.	1r	.	.	.	.	.
.	.	1c	lux	1g	-do	1cc	po-
=50	=50	=50	=50	=50	=50	=50	=50
1.G	sur-	0d	.	2.G/	lux	2b\	.
.	.	.	.	.	.	2.dd\	.
.	.	.	.	4A/	.	.	.
.	.	.	.	0B	.	.	.
.	.	.	.	.	.	4cc\	.
2G\	-ge-	.	.	.	.	4b\	.
.	.	.	.	.	.	4a/	.
1G	-re	1e	est	.	.	1g	.
=51	=51	=51	=51	=51	=51	=51	=51
0F	qui	2.f\	or-	1c	est	0a	-pu-
.	.	4e\	.	.	.	.	.
.	.	2d\	.	1f	or-	.	.
.	.	2c\	.	.	.	.	.
1G	cu-	1B	.	4e\	.	1g	-lo,
.	.	.	.	4d\	.	.	.
.	.	.	.	[2g\	.	.	.
=52	=52	=52	=52	=52	=52	=52	=52
1A	.	1c	.	2g\]	.	2r	.
.	.	.	.	2f#i\	.	1cc	po-
0G	-rat	0d	-ta,	0g	.	.	.
.	.	.	.	.	.	4b\	.
.	.	.	.	.	.	4a/	.
.	.	.	.	.	.	1b	.
=53	=53	=53	=53	=53	=53	=53	=53
1.A	po-	2.c\	or-	1e	-ta:	1.cc	.
.	.	4B\	.	.	.	.	.
.	.	2A/	.	1r	.	.	.
2E\	.	2G/	.	.	.	2b\	.
1F	-pu-	2c\	.	1A	or-	1a	-pu-
.	.	2d\	.	.	.	.	.
=54	=54	=54	=54	=54	=54	=54	=54
[0.El	-lo.	[0.el	-ta:	1.B	.	[0.gl	-lo.
.	.	.	.	1c	.	.	.
.	.	.	.	4B\	.	.	.
.	.	.	.	4A/	.	.	.
=55	=55	=55	=55	=55	=55	=55	=55
0.E]	.	0.e]	.	0.Bl	-ta:	0.g]	.
!!LO:LB:i:g=z	.		.		.		.
=56||	=56||	=56||	=56||	=56||	=56||	=56||	=56||
*>B	*	*>B	*	*>B	*	*>B	*
!!section: Secunda pars: Tu que genuisti / Gaude virgo
*M2/1	*	*M2/1	*	*M2/1	*	*M2/1	*
*met(C|)	*	*met(C|)	*	*met(C|)	*	*met(C|)	*
!!!OMD: Secunda pars: Tu que genuisti / Gaude virgo
0r	.	0r	.	[0c	Gau-	0r	.
=57	=57	=57	=57	=57	=57	=57	=57
0r	.	0r	.	0c]	.	[0cc	Tu
=58	=58	=58	=58	=58	=58	=58	=58
0r	.	0r	.	0e	-de	1cc]	.
.	.	.	.	.	.	1b	.
=59	=59	=59	=59	=59	=59	=59	=59
0r	.	0r	.	0f	.	0a	.
=60	=60	=60	=60	=60	=60	=60	=60
[0c	Tu	[0c	Gau-	[0g	.	0g	.
=61	=61	=61	=61	=61	=61	=61	=61
1.c]	.	1c]	.	0g]	.	0cc	.
.	.	[1e	-de	.	.	.	.
2B\	.	.	.	.	.	.	.
=62	=62	=62	=62	=62	=62	=62	=62
0A	.	1e]	.	1r	.	1.cc	que
.	.	1f	.	1c	glo-	.	.
.	.	.	.	.	.	4b\	.
.	.	.	.	.	.	4a/	.
=63	=63	=63	=63	=63	=63	=63	=63
1.G	.	[0g	.	2d\	-ri-	0b	.
.	.	.	.	1e	-o-	.	.
2A\	.	.	.	4d\	.	.	.
.	.	.	.	4c\	.	.	.
=64	=64	=64	=64	=64	=64	=64	=64
1B	.	0g]	.	1d	.	0r	.
[1c	.	.	.	1e	.	.	.
=65	=65	=65	=65	=65	=65	=65	=65
1c]	.	0r	.	1c	.	0r	.
1B	.	.	.	1d	.	.	.
=66	=66	=66	=66	=66	=66	=66	=66
0c	que	[0g	glo-	0e	-sa,	0r	.
=67	=67	=67	=67	=67	=67	=67	=67
1B	ge-	0g]	.	0r	.	0r	.
1c	.	.	.	.	.	.	.
=68	=68	=68	=68	=68	=68	=68	=68
1.d	.	[0f	-ri-	2r	.	0r	.
.	.	.	.	2a\	glo-	.	.
.	.	.	.	2f\	-ri-	.	.
4c\	.	.	.	[2a\	-o-	.	.
4B\	.	.	.	.	.	.	.
=69	=69	=69	=69	=69	=69	=69	=69
1A	.	0f]	.	4a\]	.	0r	.
.	.	.	.	4g\	.	.	.
.	.	.	.	4f\	.	.	.
.	.	.	.	4e\	.	.	.
1B	-nu-	.	.	1d	-sa,	.	.
=70	=70	=70	=70	=70	=70	=70	=70
1.c	-i-	[0e	-o-	2r	.	0r	.
.	.	.	.	2g\	glo-	.	.
.	.	.	.	2e\	-ri-	.	.
4B\	.	.	.	[2g\	-o-	.	.
4A\	.	.	.	.	.	.	.
=71	=71	=71	=71	=71	=71	=71	=71
1G	-sti,	0e]	.	4g\]	.	1r	.
.	.	.	.	4f\	.	.	.
.	.	.	.	4e\	.	.	.
.	.	.	.	4d\	.	.	.
1A	.	.	.	1c	-sa,	1cc	ge-
=72	=72	=72	=72	=72	=72	=72	=72
1.B-i	ge-	[0d	.	2r	.	1.dd	.
.	.	.	.	2f\	glo-	.	.
.	.	.	.	2d\	-ri-	.	.
4A\	.	.	.	[2f\	-o-	4cc\	.
4G\	.	.	.	.	.	4b\	.
=73	=73	=73	=73	=73	=73	=73	=73
1F	.	0d]	.	4f\]	.	1a	.
.	.	.	.	4e\	.	.	.
.	.	.	.	4d\	.	.	.
.	.	.	.	4c\	.	.	.
1G	-nu-	.	.	1B	-sa,	1b	-nu-
=74	=74	=74	=74	=74	=74	=74	=74
1.A	-i-	[0c	-sa,	2r	.	1.cc	-i-
.	.	.	.	2e\	glo-	.	.
.	.	.	.	2c\	-ri-	.	.
4G\	.	.	.	[2e\	-o-	4b\	.
4F\	.	.	.	.	.	4a/	.
=75	=75	=75	=75	=75	=75	=75	=75
1E	-sti,	0c]	.	4e\]	.	1g	-sti,
.	.	.	.	4d\	.	.	.
.	.	.	.	4c\	.	.	.
.	.	.	.	4B\	.	.	.
1F	.	.	.	1A	-sa,	1a	.
=76	=76	=76	=76	=76	=76	=76	=76
1.G	ge-	0r	.	2r	.	1.b-	ge-
.	.	.	.	2d\	glo-	.	.
.	.	.	.	2B\	-ri-	.	.
4F\	.	.	.	[2d\	-o-	4a/	.
4E\	.	.	.	.	.	4g/	.
=77	=77	=77	=77	=77	=77	=77	=77
2D\	.	0r	.	4d\]	.	2f/	.
.	.	.	.	4c\	.	.	.
1G	.	.	.	4B\	.	2g/	-nu-
.	.	.	.	4A/	.	.	.
.	.	.	.	2G/	-sa,	2b-i\	-i-
2F\	-nu-	.	.	[2d\	glo-	[2a/	.
=78	=78	=78	=78	=78	=78	=78	=78
1G	-i-	0r	.	2d\]	.	4a/]	.
.	.	.	.	.	.	4g/	.
.	.	.	.	4c\	.	1g	.
.	.	.	.	4B\	.	.	.
1A	.	.	.	1c	-ri-	.	.
.	.	.	.	.	.	2f#i/	.
=79	=79	=79	=79	=79	=79	=79	=79
[0G	-sti,	0r	.	2.d\	-o-	0g	-sti,
.	.	.	.	4c\	.	.	.
.	.	.	.	2d\	.	.	.
.	.	.	.	[2e\	.	.	.
=80	=80	=80	=80	=80	=80	=80	=80
0G]	.	0r	.	2e\]	.	1r	.
.	.	.	.	4d\	.	.	.
.	.	.	.	4c\	.	.	.
.	.	.	.	2.B\	.	2.dd\	na-
.	.	.	.	4A/	.	4cc\	.
=81	=81	=81	=81	=81	=81	=81	=81
0r	.	0r	.	2B\	.	2dd\	.
.	.	.	.	2c\	.	1ee	-tu-
.	.	.	.	1A	.	.	.
.	.	.	.	.	.	4dd\	.
.	.	.	.	.	.	4cc\	.
=82	=82	=82	=82	=82	=82	=82	=82
2.G\	na-	0r	.	1G	-sa,	2.b\	.
4F\	.	.	.	.	.	4a/	.
2G\	.	.	.	1r	.	2b\	-ra
[2A\	-tu-	.	.	.	.	2cc\	mi-
=83	=83	=83	=83	=83	=83	=83	=83
2A\]	.	0r	.	0r	.	1a	-ran-
4G\	.	.	.	.	.	.	.
4F\	.	.	.	.	.	.	.
2.E\	-ra	.	.	.	.	2.g/	.
4D\	.	.	.	.	.	4f/	.
=84	=84	=84	=84	=84	=84	=84	=84
2E\	.	0r	.	0r	.	2g/	.
2F\	mi-	.	.	.	.	1a	.
1D	-ran-	.	.	.	.	.	.
.	.	.	.	.	.	4g/	.
.	.	.	.	.	.	4f/	.
=85	=85	=85	=85	=85	=85	=85	=85
0C	-te,	0r	.	0c	su-	2.e/	.
.	.	.	.	.	.	4d/	.
.	.	.	.	.	.	2e/	.
.	.	.	.	.	.	2f/	.
=86	=86	=86	=86	=86	=86	=86	=86
0r	.	0r	.	1B	.	1d	-te,
.	.	.	.	1c	.	1c	.
=87	=87	=87	=87	=87	=87	=87	=87
0r	.	0c	su-	0A	.	0r	.
=88	=88	=88	=88	=88	=88	=88	=88
1r	.	1B	.	2G/	.	0r	.
.	.	.	.	2d\	.	.	.
1C	tu-	1c	.	2e\	.	.	.
.	.	.	.	[2g\	.	.	.
=89	=89	=89	=89	=89	=89	=89	=89
0D	.	0A	.	2g\]	.	1r	.
.	.	.	.	4f#i\	.	.	.
.	.	.	.	4e\	.	.	.
.	.	.	.	1f#i	.	1d	mi-
=90	=90	=90	=90	=90	=90	=90	=90
[0E	-um	[0G	-per	0g	-per	2B/	-ran-
.	.	.	.	.	.	2c/	.
.	.	.	.	.	.	2B/	.
.	.	.	.	.	.	[2c/	.
=91	=91	=91	=91	=91	=91	=91	=91
0E]	.	0G]	.	1.e	om-	2c/]	.
.	.	.	.	.	.	2B/	.
.	.	.	.	.	.	1c	-te,
.	.	.	.	4d\	.	.	.
.	.	.	.	4c\	.	.	.
=92	=92	=92	=92	=92	=92	=92	=92
[0E	sanc-	0r	.	2B\	.	0g	tu-
.	.	.	.	2c\	.	.	.
.	.	.	.	2B\	.	.	.
.	.	.	.	[2c\	.	.	.
=93	=93	=93	=93	=93	=93	=93	=93
0E]	.	0G	om-	2c\]	.	1.g	-um
.	.	.	.	2B\	.	.	.
.	.	.	.	1c	.	.	.
.	.	.	.	.	.	4f/	.
.	.	.	.	.	.	4e/	.
=94	=94	=94	=94	=94	=94	=94	=94
0D	-tum	0A	.	0d	-nes	0f	.
=95	=95	=95	=95	=95	=95	=95	=95
0E	.	1B	.	0G	.	0g	.
.	.	[1c	.	.	.	.	.
=96	=96	=96	=96	=96	=96	=96	=96
1.F	Ge-	1c]	.	1.A	spe-	1c	sanc-
.	.	1c	-nes	.	.	[1f	.
2E\	.	.	.	2G/	-ci-	.	.
=97	=97	=97	=97	=97	=97	=97	=97
1D	.	1d	spe-	2A/	-o-	2f/]	.
.	.	.	.	2B\	.	4e/	.
.	.	.	.	.	.	4f/	.
1C	-ni-	1e	-ci-	1c	.	2g/	.
.	.	.	.	.	.	[2a/	.
=98	=98	=98	=98	=98	=98	=98	=98
0D	-to-	0f	-o-	0A	.	4a/]	.
.	.	.	.	.	.	4g/	.
.	.	.	.	.	.	4f/	.
.	.	.	.	.	.	4e/	.
.	.	.	.	.	.	1d	.
=99	=99	=99	=99	=99	=99	=99	=99
0AA	.	1e	.	0c	.	2c/	-tum
.	.	.	.	.	.	2.cc\	Ge-
.	.	1c	.	.	.	.	.
.	.	.	.	.	.	4b\	.
.	.	.	.	.	.	2a/	-ni-
=100	=100	=100	=100	=100	=100	=100	=100
0BB-	.	0d	.	1.B-i	.	2g/	-to-
.	.	.	.	.	.	1f	.
.	.	.	.	2A/	.	4e/	.
.	.	.	.	.	.	4d/	.
=101	=101	=101	=101	=101	=101	=101	=101
0C;l	-rem.	0c;l	-sa:	0G;l	-sa,	0e;l	-rem.
=102	=102	=102	=102	=102	=102	=102	=102
[0c	Vir-	0r	.	1.c	spe-	0r	.
.	.	.	.	2d\	-ci-	.	.
=103	=103	=103	=103	=103	=103	=103	=103
1.c]	.	0r	.	2e\	-o-	0r	.
.	.	.	.	2f\	.	.	.
.	.	.	.	2g\	.	.	.
4B\	.	.	.	2a\	.	.	.
4A\	.	.	.	.	.	.	.
=104	=104	=104	=104	=104	=104	=104	=104
1B	.	0r	.	2d\	.	0r	.
.	.	.	.	2.g\	.	.	.
1G	.	.	.	.	.	.	.
.	.	.	.	4f\	.	.	.
.	.	.	.	4e\	.	.	.
.	.	.	.	4d\	.	.	.
=105	=105	=105	=105	=105	=105	=105	=105
1A	.	0r	.	1c	-sa,	[0cc	Vir-
2B\	.	.	.	1r	.	.	.
[2c\	.	.	.	.	.	.	.
=106	=106	=106	=106	=106	=106	=106	=106
4c\]	.	0r	.	2r	.	1.cc]	.
4B\	.	.	.	.	.	.	.
4A\	.	.	.	2.c\	spe-	.	.
4G\	.	.	.	.	.	.	.
1A	.	.	.	.	.	.	.
.	.	.	.	4d\	.	.	.
.	.	.	.	4e\	.	4b\	.
.	.	.	.	4f\	.	4a/	.
=107	=107	=107	=107	=107	=107	=107	=107
1G	-go	0r	.	2.g\	.	1.b	.
.	.	.	.	4f\	.	.	.
1r	.	.	.	4e\	-ci-	.	.
.	.	.	.	4d\	.	.	.
.	.	.	.	[2a\	-o-	[2cc\	.
=108	=108	=108	=108	=108	=108	=108	=108
0r	.	0r	.	2a\]	.	4cc\]	.
.	.	.	.	.	.	4b\	.
.	.	.	.	1g	.	4a/	.
.	.	.	.	.	.	4g/	.
.	.	.	.	.	.	1a	.
.	.	.	.	2f#i\	.	.	.
=109	=109	=109	=109	=109	=109	=109	=109
1r	.	0r	.	1.g	.	0g	-go
[1G	pri-	.	.	.	.	.	.
.	.	.	.	4f\	.	.	.
.	.	.	.	4e\	.	.	.
=110	=110	=110	=110	=110	=110	=110	=110
2G\]	.	0r	.	1.d	.	0r	.
4F\	.	.	.	.	.	.	.
4E\	.	.	.	.	.	.	.
[1D	.	.	.	.	.	.	.
.	.	.	.	[2f\	.	.	.
=111	=111	=111	=111	=111	=111	=111	=111
2D\]	.	0r	.	2f\]	.	0r	.
1F	.	.	.	4e\	.	.	.
.	.	.	.	4d\	.	.	.
.	.	.	.	2c\	.	.	.
4E\	.	.	.	2d\	.	.	.
4D\	.	.	.	.	.	.	.
=112	=112	=112	=112	=112	=112	=112	=112
2C/	.	0r	.	2e\	.	0r	.
2E\	.	.	.	1c	.	.	.
1D	.	.	.	.	.	.	.
.	.	.	.	2B\	.	.	.
=113	=113	=113	=113	=113	=113	=113	=113
0C	-us	0r	.	0c	-sa:	1r	.
.	.	.	.	.	.	[1g	pri-
=114	=114	=114	=114	=114	=114	=114	=114
0G	ac	0r	.	0r	.	2g/]	.
.	.	.	.	.	.	4f/	.
.	.	.	.	.	.	4e/	.
.	.	.	.	.	.	2d/	.
.	.	.	.	.	.	[2e/	.
=115	=115	=115	=115	=115	=115	=115	=115
0A	.	0r	.	0r	.	2e/]	.
.	.	.	.	.	.	2f/	.
.	.	.	.	.	.	2e/	.
.	.	.	.	.	.	[2f/	.
=116	=116	=116	=116	=116	=116	=116	=116
0B	pos-	0r	.	0r	.	4f/]	.
.	.	.	.	.	.	4e/	.
.	.	.	.	.	.	4d/	.
.	.	.	.	.	.	4c/	.
.	.	.	.	.	.	1d	.
=117	=117	=117	=117	=117	=117	=117	=117
1c	-te-	0r	.	1e	Va-	1c	-us
2B\	.	.	.	2d\	.	1r	.
[2c\	.	.	.	[2e\	.	.	.
=118	=118	=118	=118	=118	=118	=118	=118
2c\]	.	0r	.	2e\]	.	0g	ac
4B\	.	.	.	4d\	.	.	.
4A\	.	.	.	4c\	.	.	.
2B\	.	.	.	2d\	.	.	.
[2c\	.	.	.	[2e\	.	.	.
=119	=119	=119	=119	=119	=119	=119	=119
4c\]	.	0c	Va-	4e\]	.	0a	pos-
4B\	.	.	.	4d\	.	.	.
4A\	.	.	.	1g	.	.	.
4G\	.	.	.	.	.	.	.
1A	-ri-	.	.	.	.	.	.
.	.	.	.	2f#i\	.	.	.
=120	=120	=120	=120	=120	=120	=120	=120
1G	-us,	0d	.	1g	-le,	1b	.
1r	.	.	.	2r	.	2a/	.
.	.	.	.	[2G/	va-	[2b\	.
=121	=121	=121	=121	=121	=121	=121	=121
0r	.	0e	.	2G/]	.	2b\]	.
.	.	.	.	2A/	.	2cc\	-te-
.	.	.	.	2G/	.	2b\	.
.	.	.	.	[2A/	.	[2cc\	.
=122	=122	=122	=122	=122	=122	=122	=122
0r	.	1e	-le,	2A/]	.	2cc\]	.
.	.	.	.	2G/	.	2b\	.
.	.	1f	.	1d	.	1a	-ri-
=123	=123	=123	=123	=123	=123	=123	=123
1G	Ga-	1g	.	2.G/	.	1g	-us,
.	.	.	.	4A/	.	.	.
2G\	-bri-	[1e	va-	2B\	.	1r	.
[2A\	-e-	.	.	[2c\	.	.	.
=124	=124	=124	=124	=124	=124	=124	=124
4A\]	.	1e]	.	4c\]	.	0r	.
4G\	.	.	.	4B\	.	.	.
4F\	.	.	.	4A/	.	.	.
4E\	.	.	.	4G/	.	.	.
1F	.	1d	.	1A	-le,	.	.
=125	=125	=125	=125	=125	=125	=125	=125
1E	-lis	1e	-le,	2r	.	1g	Ga-
.	.	.	.	2.e\	va-	.	.
1r	.	1r	.	.	.	2g/	-bri-
.	.	.	.	4d\	.	.	.
.	.	.	.	[2f\	.	[2a/	-e-
=126	=126	=126	=126	=126	=126	=126	=126
0r	.	0r	.	4f\]	.	4a/]	.
.	.	.	.	4e\	.	4g/	.
.	.	.	.	4d\	.	4f/	.
.	.	.	.	4c\	.	4e/	.
.	.	.	.	1d	-le	1f	.
=127	=127	=127	=127	=127	=127	=127	=127
1.E	ab	0r	.	2r	.	1e	-lis
.	.	.	.	4G/	val-	.	.
.	.	.	.	4A/	.	.	.
.	.	.	.	4B\	.	1r	.
.	.	.	.	4c\	.	.	.
[2F\	o-	.	.	[2d\	.	.	.
=128	=128	=128	=128	=128	=128	=128	=128
4F\]	.	0r	.	2d\]	.	0r	.
4E\	.	.	.	.	.	.	.
4D\	.	.	.	1c	.	.	.
4C/	.	.	.	.	.	.	.
1D	.	.	.	.	.	.	.
.	.	.	.	2B\	.	.	.
=129	=129	=129	=129	=129	=129	=129	=129
1C	-re	0r	.	4c\	.	2.g/	ab
.	.	.	.	4d\	.	.	.
.	.	.	.	4e\	.	.	.
.	.	.	.	4f\	.	4a/	.
1r	.	.	.	2g\	.	4b\	.
.	.	.	.	.	.	4cc\	.
.	.	.	.	[2f\	.	[2dd\	o-
=130	=130	=130	=130	=130	=130	=130	=130
0r	.	0r	.	2f\]	.	2dd\]	.
.	.	.	.	2e\	.	1cc	.
.	.	.	.	1d	-de	.	.
.	.	.	.	.	.	2b\	.
=131	=131	=131	=131	=131	=131	=131	=131
*M3/1	*	*M3/1	*	*M3/1	*	*M3/1	*
*met(3)	*	*met(3)	*	*met(3)	*	*met(3)	*
[3%4.C	su-	[3%4.g	val-	3%4c	de-	[3%4.cc	-re
.	.	.	.	[3%2e	-co-	.	.
=132	=132	=132	=132	=132	=132	=132	=132
3%2C]	.	3%2g]	.	3%2e]	.	3%2cc]	.
3%4D	-mens	3%4f	-de	3%4d	.	3%4a	su-
=133	=133	=133	=133	=133	=133	=133	=133
*M2/1	*	*	*	*M2/1	*	*	*
*met(C|)	*	*	*	*met(C|)	*	*	*
0E	.	3%4e	de-	0G	-ra,	3%4g	-mens
.	.	[3%2c	.	.	.	3%2g	il-
=134	=134	=134	=134	=134	=134	=134	=134
0F	il-	3%2c]	.	1r	.	3%2a	-lud
.	.	3%4d	-co-	.	.	3%2f	.
.	.	.	.	1A	de-	.	.
.	.	.	.	.	.	3%2a	.
=135	=135	=135	=135	=135	=135	=135	=135
*M3/1	*	*M2/1	*	*M3/1	*	*	*
*met(3)	*	*met(C|)	*	*met(3)	*	*	*
3%4E	-lud	0e	-ra,	3%4B	-co-	3%4g	.
[3%2C	.	.	.	[3%2c	.	3%2g	a-
=136	=136	=136	=136	=136	=136	=136	=136
3%2C]	.	0r	.	3%2c]	.	3%2e	.
3%4D	a-	.	.	3%4A	.	3%4f	.
=137	=137	=137	=137	=137	=137	=137	=137
*M2/1	*	*	*	*M2/1	*	*M2/1	*
*met(C|)	*	*	*	*met(C|)	*	*met(C|)	*
0E	-ve,	1r	.	0G	-ra,	1g	-ve,
.	.	1e	Et	.	.	2r	.
.	.	.	.	.	.	2g/	pec-
=138	=138	=138	=138	=138	=138	=138	=138
0r	.	1d	pro	0r	.	2a/	-ca
.	.	.	.	.	.	2b\	.
.	.	2e\	.	.	.	2cc\	.
.	.	[2f\	no-	.	.	[2dd\	-to-
=139	=139	=139	=139	=139	=139	=139	=139
0r	.	4f\]	.	0r	.	2dd\]	.
.	.	4e\	.	.	.	.	.
.	.	4d\	.	.	.	1cc	.
.	.	4c\	.	.	.	.	.
.	.	1d	.	.	.	.	.
.	.	.	.	.	.	2b\	.
=140	=140	=140	=140	=140	=140	=140	=140
0r	.	0c	-bis	1r	.	1cc	-rum,
.	.	.	.	1e	Et	1g	pec-
=141	=141	=141	=141	=141	=141	=141	=141
1r	.	0r	.	1d	pro	1f	-ca-
1G	pec-	.	.	1e	.	1g	-to-
=142	=142	=142	=142	=142	=142	=142	=142
1F	-ca	0r	.	2.f\	no-	2c/	-rum
.	.	.	.	.	.	1cc	pec-
.	.	.	.	4e\	.	.	.
1G	-to-	.	.	1d	.	.	.
.	.	.	.	.	.	2b\	-ca-
=143	=143	=143	=143	=143	=143	=143	=143
1C	-rum,	2r	.	1c	-bis	2cc\	-to-
.	.	2c\	sem-	.	.	2ee\	.
1G	pec-	2B\	.	1r	.	2dd\	.
.	.	2G/	.	.	.	2ee\	.
=144	=144	=144	=144	=144	=144	=144	=144
1F	-ca-	1A	-per,	1r	.	4ff\	.
.	.	.	.	.	.	4ee\	.
.	.	.	.	.	.	4dd\	.
.	.	.	.	.	.	4cc\	.
1G	-to-	[1G	.	1d	sem-	2b\	.
.	.	.	.	.	.	[2gg\	.
=145	=145	=145	=145	=145	=145	=145	=145
1C	-rum,	2G/]	.	1c	-per	4gg\]	.
.	.	.	.	.	.	4ff\	.
.	.	2.g\	sem-	.	.	2ee\	.
1G	pec-	.	.	2B\	.	2.dd\	.
.	.	4f\	.	.	.	.	.
.	.	4e\	.	2G/	.	.	.
.	.	4d\	.	.	.	8cc\L	.
.	.	.	.	.	.	8b\J	.
=146	=146	=146	=146	=146	=146	=146	=146
1F	-ca-	2.f\	.	1A	.	4a/	.
.	.	.	.	.	.	4g/	.
.	.	.	.	.	.	1cc	.
.	.	4e\	.	.	.	.	.
1G	-to-	1d	.	1G	.	.	.
.	.	.	.	.	.	2b\	.
=147	=147	=147	=147	=147	=147	=147	=147
*	*	*	*	*M3/1	*	*M3/1	*
*	*	*	*	*met(3)	*	*met(3)	*
0C	-rum	0c	-per	3%2G	Chri-	3%4cc	-rum
.	.	.	.	3%2.c	-stum	.	.
.	.	.	.	.	.	3%2r	.
.	.	.	.	3d\	.	.	.
=148	=148	=148	=148	=148	=148	=148	=148
*M3/1	*	*	*	*	*	*	*
*met(3)	*	*	*	*	*	*	*
3%4C	mi-	0r	.	3%4e	.	3%2.cc	mi-
.	.	.	.	.	.	3b\	.
3%2D	.	.	.	3%2f	ex-	3%2a	.
=149	=149	=149	=149	=149	=149	=149	=149
*	*	*M3/1	*	*	*	*	*
*	*	*met(3)	*	*	*	*	*
3%2E	-se-	3%4c	Chri-	3%2e	-o-	3%2g	-se-
3%2.F	-re-	.	.	3%2.A	.	3%4a	-re-
.	.	3%2d	.	.	.	.	.
3G\	.	.	.	3B\	.	.	.
=150	=150	=150	=150	=150	=150	=150	=150
3%2E	.	3%2e	.	3%2c	.	3%2g	-re,
3%4D	-re,	3%4f	.	3%2d	.	3%2r	.
.	.	.	.	3%2B	.	3%2dd	mi-
=151	=151	=151	=151	=151	=151	=151	=151
3%2C	mi-	3%2e	.	3%2c	.	3%2ee	.
3%2D	.	3%2.d	.	3%2A	.	3%4ff	.
3%2BB	-se-	.	.	3%2B	.	.	.
.	.	3c\	.	.	.	.	.
=152	=152	=152	=152	=152	=152	=152	=152
3%2C	-re-	3%2g	-tum	3%2G	.	3%2ee	-se-
3%2D	.	3%4f	ex-	3%4d	-ra,	3%2.dd	-re-
3%2BB	.	.	.	.	.	.	.
.	.	.	.	.	.	3cc\	.
=153	=153	=153	=153	=153	=153	=153	=153
3%2C	.	3%2e	.	3%2.G	ex-	3%4cc	.
3%4G	.	3%4d	-o-	.	.	.	.
.	.	.	.	3A/	.	.	.
.	.	.	.	3%2B	.	3%2b	.
=154	=154	=154	=154	=154	=154	=154	=154
[3%4.C	-re.	[3%4.c	-ra.	3%2G	-o-	[3%4.cc	-re.
.	.	.	.	3%2.A	.	.	.
.	.	.	.	3G/	.	.	.
=155	=155	=155	=155	=155	=155	=155	=155
*	*	*	*	*^	*	*	*
3%4.C]l	.	3%4.c]l	.	3%4.G\l	3%4.g/l	-ra.	3%4.cc]l	.
*	*	*	*	*v	*v	*	*	*
==	==	==	==	==	==	==	==
*-	*-	*-	*-	*-	*-	*-	*-
!!!RDF**kern: %=rational rhythm
!!!rscale-alt: 1/4
!!!RDF**kern: V=start of tuplet marker
!!!RDF**kern: Z=end of tuplet marker
!!!RDF**kern: l=long note in original notation
!!!RDF**kern: i=editorial accidental
!!!ENC: Jesse Rodin 2011/05/10
!!!END: 2011/08/05/
!!!SMS: VatS 15
!!!EED: Jesse Rodin
!!!EEV: 2011/08/05/
!!attribution-level@Jos: 1 (secure, core group [checkmark])
!!!ONB: Translated from MusicXML and edited on 2011/08/05/ by Craig Sapp
!!muse2ps: u^(2) @{OTL2}^C^@{COM}\n@{SCT}^i2I150v90,90,90,120c112z18l2700t130
